src/lib/packages/icons/src/assets/line/bitcoin-square.svg

<svg width="24" height="24" viewBox="0 0 24 24" fill="none" xmlns="http://www.w3.org/2000/svg">
<path d="M17.625 2.25H6.375C3.715 2.25 2.25 3.715 2.25 6.375V17.625C2.25 20.285 3.715 21.75 6.375 21.75H17.625C20.285 21.75 21.75 20.285 21.75 17.625V6.375C21.75 3.715 20.285 2.25 17.625 2.25ZM20.25 17.625C20.25 19.465 19.465 20.25 17.625 20.25H6.375C4.535 20.25 3.75 19.465 3.75 17.625V6.375C3.75 4.535 4.535 3.75 6.375 3.75H17.625C19.465 3.75 20.25 4.535 20.25 6.375V17.625ZM14.922 11.745C15.26 11.308 15.469 10.766 15.469 10.17C15.469 8.92004 14.583 7.87599 13.41 7.64099V7C13.41 6.586 13.074 6.25 12.66 6.25C12.246 6.25 11.91 6.586 11.91 7V7.58997H11.319V7C11.319 6.586 10.983 6.25 10.569 6.25C10.155 6.25 9.81897 6.586 9.81897 7V7.58997H8.76501C8.35101 7.58997 8.01501 7.92597 8.01501 8.33997C8.01501 8.75397 8.35101 9.08997 8.76501 9.08997H9.29602V14.91H8.76501C8.35101 14.91 8.01501 15.246 8.01501 15.66C8.01501 16.074 8.35101 16.41 8.76501 16.41H9.81897V17C9.81897 17.414 10.155 17.75 10.569 17.75C10.983 17.75 11.319 17.414 11.319 17V16.41H11.91V17C11.91 17.414 12.246 17.75 12.66 17.75C13.074 17.75 13.41 17.414 13.41 17V16.41H13.427C14.838 16.41 15.985 15.253 15.985 13.83C15.985 12.971 15.563 12.215 14.922 11.745ZM13.969 10.17C13.969 10.766 13.494 11.25 12.911 11.25H10.796V9.08997H12.911C13.494 9.08997 13.969 9.57404 13.969 10.17ZM13.427 14.91H10.796V12.75H12.911H13.428C14.011 12.75 14.486 13.234 14.486 13.83C14.486 14.426 14.011 14.91 13.427 14.91Z" fill="currentColor"/>
</svg>

<svg xmlns="http://www.w3.org/2000/svg" width="24" height="24" fill="none"><path fill="currentColor" d="M17.625 2.25H6.375c-2.66 0-4.125 1.465-4.125 4.125v11.25c0 2.66 1.465 4.125 4.125 4.125h11.25c2.66 0 4.125-1.465 4.125-4.125V6.375c0-2.66-1.465-4.125-4.125-4.125Zm2.625 15.375c0 1.84-.785 2.625-2.625 2.625H6.375c-1.84 0-2.625-.785-2.625-2.625V6.375c0-1.84.785-2.625 2.625-2.625h11.25c1.84 0 2.625.785 2.625 2.625v11.25Zm-5.328-5.88c.338-.437.547-.979.547-1.575 0-1.25-.886-2.294-2.059-2.529V7a.75.75 0 0 0-1.5 0v.59h-.591V7a.75.75 0 0 0-1.5 0v.59H8.765a.75.75 0 0 0 0 1.5h.531v5.82h-.531a.75.75 0 0 0 0 1.5h1.054V17a.75.75 0 0 0 1.5 0v-.59h.591V17a.75.75 0 0 0 1.5 0v-.59h.017c1.411 0 2.558-1.157 2.558-2.58 0-.859-.422-1.615-1.063-2.085Zm-.953-1.575a1.07 1.07 0 0 1-1.058 1.08h-2.115V9.09h2.115a1.07 1.07 0 0 1 1.058 1.08Zm-.542 4.74h-2.631v-2.16h2.632a1.07 1.07 0 0 1 1.058 1.08 1.07 1.07 0 0 1-1.059 1.08Z"/></svg>
